X: 40031
T: Three To Skip
R: reel
M: 4/4
K: Amajor
||abga f2~f2|fecB Ae (3fga|eA~A2 AB (3cBA|~B2BA Bedc|
eaaf ec~c2|dBBA BecB|AE~E2 Ee~e2|eAce abga|
~f2ff fecB|~A2AA Ae (3fga|eA~A2 AB (3cBA|~B2BA Bedc|
eaaf ec~c2|dBBA BecB|AE~E2 Ee~e2|edcB ABGA||
FGAF cFdc|cAAG AFEC|DFAd cecA|ABBA Be(3cBA|
d3A (3Bcde2|eAde ed (3cBA|ABBA BA (3Bcd|eAce dcAG|
FGAF cFdc|cAAG AFEC|DFAd cecA|ABBA BecB|
AE~E2 Ee~e2|edcB Ac (3cBA|dFcd eAce|fAdf gebg||

